svg/icon/act.svg

<svg height="32" viewBox="0 0 32 32" width="32" xmlns="http://www.w3.org/2000/svg" xmlns:xlink="http://www.w3.org/1999/xlink"><defs><linearGradient id="a" x1="50%" x2="50%" y1="0%" y2="100%"><stop offset="0" stop-color="#fff" stop-opacity=".5"/><stop offset="1" stop-opacity=".5"/></linearGradient><circle id="b" cx="16" cy="15" r="15"/><filter id="c" height="111.7%" width="111.7%" x="-5.8%" y="-4.2%"><feOffset dy=".5" in="SourceAlpha" result="shadowOffsetOuter1"/><feGaussianBlur in="shadowOffsetOuter1" result="shadowBlurOuter1" stdDeviation=".5"/><feComposite in="shadowBlurOuter1" in2="SourceAlpha" operator="out" result="shadowBlurOuter1"/><feColorMatrix in="shadowBlurOuter1" values="0 0 0 0 0   0 0 0 0 0   0 0 0 0 0  0 0 0 0.199473505 0"/></filter><path id="d" d="m13.7696672 5.5h4.4606656c.3146847 0 .6048295.16997114.7587118.44446476l6.9057528 12.31840964c.1480919.2641648.1481218.5863408.000079.8505331l-2.2089315 3.9419867c-.1538596.2745727-.4440482.4446058-.7587909.4446058h-13.85430801c-.31474264 0-.6049313-.1700331-.75879085-.4446058l-2.20893158-3.9419867c-.14804278-.2641923-.14801283-.5863683.00007904-.8505331l6.9057528-12.31840964c.1538823-.27449362.4440271-.44446476.7587118-.44446476zm2.2303328 4.9009901-4.6534397 8.2871287h9.3068794z"/><filter id="e" height="119.4%" width="117.5%" x="-8.8%" y="-6.9%"><feOffset dy=".5" in="SourceAlpha" result="shadowOffsetOuter1"/><feGaussianBlur in="shadowOffsetOuter1" result="shadowBlurOuter1" stdDeviation=".5"/><feColorMatrix in="shadowBlurOuter1" values="0 0 0 0 0   0 0 0 0 0   0 0 0 0 0  0 0 0 0.204257246 0"/></filter></defs><g fill="none" fill-rule="evenodd"><g fill-rule="nonzero"><use fill="#000" filter="url(#c)" xlink:href="#b"/><use fill="#767dff" fill-rule="evenodd" xlink:href="#b"/><use fill="url(#a)" fill-rule="evenodd" xlink:href="#b"/><circle cx="16" cy="15" r="14.5" stroke="#000" stroke-opacity=".097"/></g><use fill="#000" filter="url(#e)" xlink:href="#d"/><use fill="#fff" xlink:href="#d"/></g></svg>

<svg xmlns="http://www.w3.org/2000/svg" xmlns:xlink="http://www.w3.org/1999/xlink" width="32" height="32" viewBox="0 0 32 32">
  <defs>
    <linearGradient id="act-c" x1="50%" x2="50%" y1="0%" y2="100%">
      <stop offset="0%" stop-color="#FFF" stop-opacity=".5"/>
      <stop offset="100%" stop-opacity=".5"/>
    </linearGradient>
    <circle id="act-b" cx="16" cy="15" r="15"/>
    <filter id="act-a" width="111.7%" height="111.7%" x="-5.8%" y="-4.2%" filterUnits="objectBoundingBox">
      <feOffset dy=".5" in="SourceAlpha" result="shadowOffsetOuter1"/>
      <feGaussianBlur in="shadowOffsetOuter1" result="shadowBlurOuter1" stdDeviation=".5"/>
      <feComposite in="shadowBlurOuter1" in2="SourceAlpha" operator="out" result="shadowBlurOuter1"/>
      <feColorMatrix in="shadowBlurOuter1" values="0 0 0 0 0   0 0 0 0 0   0 0 0 0 0  0 0 0 0.199473505 0"/>
    </filter>
    <path id="act-e" d="M13.7696672,5.5 L18.2303328,5.5 C18.5450175,5.5 18.8351623,5.66997114 18.9890446,5.94446476 L25.8947974,18.2628744 C26.0428893,18.5270392 26.0429192,18.8492152 25.8948764,19.1134075 L23.6859449,23.0553942 C23.5320853,23.3299669 23.2418967,23.5 22.927154,23.5 L9.07284599,23.5 C8.75810335,23.5 8.46791469,23.3299669 8.31405514,23.0553942 L6.10512356,19.1134075 C5.95708078,18.8492152 5.95711073,18.5270392 6.1052026,18.2628744 L13.0109554,5.94446476 C13.1648377,5.66997114 13.4549825,5.5 13.7696672,5.5 Z M16,10.4009901 L11.3465603,18.6881188 L20.6534397,18.6881188 L16,10.4009901 Z"/>
    <filter id="act-d" width="117.5%" height="119.4%" x="-8.8%" y="-6.9%" filterUnits="objectBoundingBox">
      <feOffset dy=".5" in="SourceAlpha" result="shadowOffsetOuter1"/>
      <feGaussianBlur in="shadowOffsetOuter1" result="shadowBlurOuter1" stdDeviation=".5"/>
      <feColorMatrix in="shadowBlurOuter1" values="0 0 0 0 0   0 0 0 0 0   0 0 0 0 0  0 0 0 0.204257246 0"/>
    </filter>
  </defs>
  <g fill="none" fill-rule="evenodd">
    <g fill-rule="nonzero">
      <use fill="#000" filter="url(#act-a)" xlink:href="#act-b"/>
      <use fill="#767DFF" fill-rule="evenodd" xlink:href="#act-b"/>
      <use fill="url(#act-c)" fill-rule="evenodd" style="mix-blend-mode:soft-light" xlink:href="#act-b"/>
      <circle cx="16" cy="15" r="14.5" stroke="#000" stroke-opacity=".097"/>
    </g>
    <use fill="#000" filter="url(#act-d)" xlink:href="#act-e"/>
    <use fill="#FFF" xlink:href="#act-e"/>
  </g>
</svg>
